public/images/ico_social.svg

<svg height="28" viewBox="0 0 56 28" width="56" xmlns="http://www.w3.org/2000/svg"><g fill="none" fill-rule="evenodd"><g transform="translate(28.769231)"><ellipse cx="13.615385" cy="13.715366" fill="#d0d2d3" rx="13.615385" ry="13.715366"/><path d="m14.6468531 12.237037v-1.2349037c0-.5570963.1225385-.8391703.9831959-.8391703h1.0797412v-2.07407411h-1.6503496c-2.0629371 0-2.8881119 1.38382222-2.8881119 2.90370371v1.2444444h-1.6503497v2.0740741h1.6503497v6.2222222h2.4755244v-6.2222222h1.8178602l.2450769-2.0740741z" fill="#fff"/></g><ellipse cx="13.615385" cy="13.715366" fill="#d0d2d3" rx="13.615385" ry="13.715366"/><path d="m11.8892358 3.25664115c0 3.46456593-2.68662314 7.45964615-7.59962027 7.45964615-1.50817061 0-2.91180335-.434284-4.09392883-1.17833515.20851066.02468153.42097681.03688364.63683338.03688364 1.2513465 0 2.40324076-.41903139 3.31752327-1.12259368-1.16884634-.02079905-2.15545776-.7789935-2.49534709-1.82033225.1633051.03022794.33056568.04686717.50262936.04686717.24354497 0 .4794615-.03216918.70379411-.09207043-1.22196288-.24099158-2.14302624-1.30035617-2.14302624-2.57076172 0-.01109282 0-.02190832.00084761-.03272383.35966676.19634297.77188499.31392689 1.20953135.32779292-.71679071-.47033569-1.18805871-1.27262411-1.18805871-2.18251292 0-.48031923.13109613-.93041052.36136197-1.31782737 1.3171771 1.58627369 3.28559685 2.63010833 5.50547255 2.73937264-.04577064-.19190584-.06893849-.3921313-.06893849-.59762584 0-1.44789072 1.19568715-2.62151139 2.67080119-2.62151139.76821204 0 1.46239994.31836402 1.94977244.82780191.6085799-.11758392 1.1801477-.33555789 1.6963388-.63617339-.2000346.6120465-.6232717 1.12619885-1.1744971 1.45066392.5402065-.06350641 1.0552674-.20438526 1.5341638-.41293033-.3582541.52552248-.8111573.98753856-1.3332815 1.35692957.0056507.11259215.0076284.22573894.0076284.33944038z" fill="#fff" transform="translate(6.807692 8.711111)"/></g></svg>

<?xml version="1.0" encoding="UTF-8" standalone="no"?>
<svg width="56px" height="28px" viewBox="0 0 56 28" version="1.1" xmlns="http://www.w3.org/2000/svg" xmlns:xlink="http://www.w3.org/1999/xlink" xmlns:sketch="http://www.bohemiancoding.com/sketch/ns">
    <!-- Generator: Sketch 3.2.2 (9983) - http://www.bohemiancoding.com/sketch -->
    <title>fab + ic_content_copy_24px + Imported Layers + fab + ic_content_copy_24px + Group 3</title>
    <desc>Created with Sketch.</desc>
    <defs></defs>
    <g id="Desktop" stroke="none" stroke-width="1" fill="none" fill-rule="evenodd" sketch:type="MSPage">
        <g id="1---Login" sketch:type="MSArtboardGroup" transform="translate(-1094.000000, -732.000000)">
            <g id="fab-+-ic_content_copy_24px-+-Imported-Layers-+-fab-+-ic_content_copy_24px-+-Group-3" sketch:type="MSLayerGroup" transform="translate(1094.000000, 732.000000)">
                <g id="fab-+-ic_content_copy_24px-+-Imported-Layers" transform="translate(28.769231, 0.000000)" sketch:type="MSShapeGroup">
                    <g id="fab-+-ic_content_copy_24px" fill="#D0D2D3">
                        <g id="fab">
                            <ellipse id="button-bg" cx="13.6153846" cy="13.7153664" rx="13.6153846" ry="13.7153664"></ellipse>
                        </g>
                    </g>
                    <path d="M14.6468531,12.237037 L14.6468531,11.0021333 C14.6468531,10.445037 14.7693916,10.162963 15.630049,10.162963 L16.7097902,10.162963 L16.7097902,8.08888889 L15.0594406,8.08888889 C12.9965035,8.08888889 12.1713287,9.47271111 12.1713287,10.9925926 L12.1713287,12.237037 L10.520979,12.237037 L10.520979,14.3111111 L12.1713287,14.3111111 L12.1713287,20.5333333 L14.6468531,20.5333333 L14.6468531,14.3111111 L16.4647133,14.3111111 L16.7097902,12.237037 L14.6468531,12.237037" id="Imported-Layers" fill="#FFFFFF"></path>
                </g>
                <g id="fab-+-ic_content_copy_24px-+-Group-2" sketch:type="MSShapeGroup">
                    <g id="fab-+-ic_content_copy_24px" fill="#D0D2D3">
                        <g id="fab">
                            <ellipse id="button-bg" cx="13.6153846" cy="13.7153664" rx="13.6153846" ry="13.7153664"></ellipse>
                        </g>
                    </g>
                    <g id="Group-2" transform="translate(6.807692, 8.711111)" fill="#FFFFFF">
                        <g id="Twitter">
                            <path d="M11.8892358,3.25664115 C11.8892358,6.72120708 9.20261266,10.7162873 4.28961553,10.7162873 C2.78144492,10.7162873 1.37781218,10.2820033 0.195686702,9.53795215 C0.404197363,9.56263368 0.61666351,9.57483579 0.832520075,9.57483579 C2.08386658,9.57483579 3.23576084,9.1558044 4.15004335,8.45224211 C2.98119701,8.43144306 1.99458559,7.67324861 1.65469626,6.63190986 C1.81800136,6.6621378 1.98526194,6.67877703 2.15732562,6.67877703 C2.40087059,6.67877703 2.63678712,6.64660785 2.86111973,6.5867066 C1.63915685,6.34571502 0.718093493,5.28635043 0.718093493,4.01594488 C0.718093493,4.00485206 0.718093493,3.99403656 0.718941097,3.98322105 C1.07860786,4.17956402 1.49082609,4.29714794 1.92847245,4.31101397 C1.21168174,3.84067828 0.74041374,3.03838986 0.74041374,2.12850105 C0.74041374,1.64818182 0.871509874,1.19809053 1.10177571,0.810673684 C2.41895281,2.39694737 4.38737256,3.44078201 6.60724826,3.55004632 C6.56147762,3.35814048 6.53830977,3.15791502 6.53830977,2.95242048 C6.53830977,1.50452976 7.73399692,0.330909091 9.20911096,0.330909091 C9.977323,0.330909091 10.6715109,0.64927311 11.1588834,1.158711 C11.7674633,1.04112708 12.3390311,0.82315311 12.8552222,0.522537608 C12.6551876,1.13458411 12.2319505,1.64873646 11.6807251,1.97320153 C12.2209316,1.90969512 12.7359925,1.76881627 13.2148889,1.5602712 C12.8566348,2.08579368 12.4037316,2.54780976 11.8816074,2.91720077 C11.8872581,3.02979292 11.8892358,3.14293971 11.8892358,3.25664115 Z" id="Imported-Layers-2"></path>
                        </g>
                    </g>
                </g>
            </g>
        </g>
    </g>
</svg>
